X:1
T:Praise the Lord
T:Praise the Lord
T:Thomas Tallis
T:Psalm before Morning Prayer
T:Source : The Whole Booke of Psalmes---London---T.Est---1621. Editor : André Vierendeels (23/05/14).
T:Notes : Original clefss : C1, C3, C4, F4 Original note vavlues have been halved
C:Thomas Tallis
%%score [ 1 2 3 4 ]
L:1/8
Q:1/4=120
M:4/4
K:C
V:1 treble nm="Cantus" snm="C"
V:2 treble nm="Altus" snm="A"
V:3 treble-8 nm="Tenor" snm="T"
V:4 bass nm="Bassus" snm="B"
V:1
 z2 D2 D2 D2 | D2 G2 G2 ^F2 | G3 G A2 A2 | B2 G2 c2 c2 | B2 B2 A2 A2 | G2 d2 c2 A2 | B2 B2 A2 A2 | %7
w: Praise the Lord|O ye Gen- tils|all, which hath brought|you in- to his|light: O praise him|all peo- ple mor-|tall, as it is|
w: For he is|full de- ter- mi-|ned, on us to|poure out his mer-|cy: and the Lord's|truth be ye as-|sured, a- bi- deth|
w: Glo- ry be|to God the Fa-|ther, and to Je-|sus Christ, his true|sonne: with the Ho-|ly GHost in like|manner, now and at|
 G2 D2 E2 ^F2 | G8 |] %9
w: most wor- thie and|night.|
w: per- pe- tu- al-|ly.|
w: e- ve- ry sea-|son.|
V:2
 B,4 A,2 A,2 | B,2 D2 E2 D2 | D2 D2 E2 F2 | G2 D2 E3 E | D2 G2 E2 D2 | D3 G E2 ^F2 | G2 G2 E2 D2 | %7
w: Praise the Lord|O ye Gen- tils|all, which hath brought|you in- to his|light: O praise him|all peo- ple mor-|tall, as it is|
w: For he is|full de- ter- mi-|ned, on us to|poure out his mer-|cy: and the Lord's|truth be ye as-|sured, a- bi- deth|
w: Glo- ry be-|to God the Fa-|ther, and to Je-|sus Christ, his true|sonne: with the Ho-|ly Ghost in like|manner, now and at|
 B,3 D C2 A,2 | B,8 |] %9
w: most wor- tie and|night.|
w: per- pe- tu- al-|ly.|
w: e- ve- ry sea-|son.|
V:3
 G4 G2 ^F2 | G3 G A2 A2 | B2 G2 c2 c2 | B2 B2 A2 A2 | G2 d2 c2 A2 | B2 B2 A2 A2 | G2 D2 E2 ^F2 | %7
w: Praise the Lord|O ye Gen- tils|all, which hath brought|you in- to his|light: O praise him|all peo- ple mor-|tall, as it is|
w: For he is|full de- ter- mi-|ned, on us to|_ poure his mer-|cy: and the Lord's|truth be ye as-|sured, a- bi- deth|
w: Glo- ry be|to God the Fa-|ther, and to Je-|sus Christ, his true|sonne: with the Ho-|ly Ghost in like|manner, now and at|
 G2 B2 A2 A2 | G8 |] %9
w: most wor- tie and|night.|
w: per- pe- tu- al-|ly.|
w: e- ve- ry sea-|son.|
V:4
 G,,4 D,2 D,2 | G,,2 B,,2 C,2 D,2 | G,,2 B,,2 A,,2 A,,2 | G,,2 G,2 G,2 ^F,2 | G,3 G, A,2 ^F,2 | %5
w: Praise the Lord|O ye Gen- tils|all, which hath brought|you in- to his|light: O praise him|
w: For he is|full de- ter- mi-|ned, on us to|_ poure his mer-|cy: and the Lord's|
w: Glo- ry be|to God the Fa-|ther, and to Je-|sus Christ, his true|sonne: with the Ho-|
 G,2 G,,2 C,2 D,2 | G,,2 B,,2 C,2 D,2 | E,2 G,2 C,2 D,2 | G,,8 |] %9
w: all peo- ple mor-|tall, as it is|most wor- tie and|night.-|
w: truth be ye as-|sured, a- bi- deth|per- pe- tu- al-|ly.|
w: ly Ghost in like|manner, now and et|e- ve- ry sea-|son.|

